X: 1
T:The Gordon Highlanders
M:6/8
L:1/8
Q:80
C:P/M James Robertson
S:Slow Air
K:HP
|: {g}A3/4B/4|
{GdG}c3/2{g}f/2c{g}B/2{G}A3/2B|
{GdG}c3/2a/2f{g}f/2e3/2f|  !
{ag}a3/2e/2f{g}c/2{G}A3/2{GdG}c|
{gef}e3/2c/2{G}A{GdG}B2{g}A3/4B/4| |
{GdG}c3/2{g}f/2c{g}B/2{G}A3/2B|  !
{GdG}c3/2a/2f{g}f/2e3/2f|
{ag}a3/2g/2f{g}e/2c3/2{G}A|
{GdG}B3/2{d}c/2{e}B{G}A2:| |:  !
{g}c3/4d/4|
{g}e3/2f/2e{g}e/2c3/2e|
{g}f3/2a/2f{g}f/2e3/2f|  !
{ag}a3/2A/2{d}c{g}e/2A3/2{d}c|
{gef}e3/2c/2{G}A{GdG}B2{g}c3/4d/4| |
{g}e3/2f/2e{g}e/2c3/2e|  !
{g}f3/2a/2f{g}f/2e3/2f|
{ag}a3/2g/2f{g}e/2c3/2{G}A|
{GdG}B3/2{d}c/2{e}B{G}A2:| |:  !
c|
{g}e/2A3/2{d}c{g}e/2A3/2{d}c|
{g}f/2A3/2f{g}f/2e3/2f|
{ag}a3/2A/2{d}c{g}e/2A3/2{d}c|  !
{gef}e3/2c/2{G}A{GdG}B2{d}c| |
{g}e/2A3/2{d}c{g}e/2A3/2{d}c|
{g}f/2A3/2f{g}f/2e3/2f|  !
{ag}a3/2g/2f{g}e/2c3/2{G}A|
{GdG}B3/2{d}c/2{e}B{G}A2:| |:
{g}c3/4d/4|  !
{g}e3/2a/2A{g}e/2a3/2A|
{g}f3/2a/2d{g}f/2a3/2f|
{g}e3/2a/2c{g}e/2A3/2{d}c|  !
{gef}e3/2c/2{G}A{GdG}B2{g}c3/4d/4| |
{g}e3/2a/2A{g}e/2a3/2A|
{g}f3/2a/2d{g}f/2a3/2e|  !
{ag}a3/2g/2f{g}e/2c3/2{G}A|
{GdG}B3/2{d}c/2{e}B{G}A2:|
